X:28
T:Svens Schottis
C:Lars Hökpers
O:Dalarna
Z:Transcribed to abcby Jon Magnusson 080424
R:Schottis
M:C|
L:1/8
K:Dm
A|:"Dm"d2de f2ed|"A"^cba^g a2e2|A2^ce g2ge|"Dm"fgbg "A"a3A|
"Dm"d2de f2ed|"A" ^cba^g a2e2|A2^ce aagf|1 "Dm"e2d^c d3A:|2 "Dm"e2d^c d3e||
"Dm"fdAF D2FA| dfed "A"^c2A2|"Gm"GABG "C"cdcB| "F"B2AG "A"A3e|
"Dm"fdAF D2FA| dfed "A"^c2A2|"Gm"GABG "F"FAcG| "C"EG ce "Dm"d4|]

